X:1
T:Young Alan
M:3/4
L:1/8
K:C
 G| Ac d2 ed/2-e/2| f3/2 e/2 d2c-B| cA d2 c3/2- B/2| A2 z2 D3/2- E/2|\
 F3/2 G/2 A2G-F| G3/2 F/2 E2D-C| Dd c2 A2| G4||

